packages/foundations/assets/icons/functional/images/audio & video/fast_forward.svg

<svg xmlns="http://www.w3.org/2000/svg" width="32" height="32" fill="none"><path fill="#1A1C1F" fill-rule="evenodd" d="M5.813 8.073c-.842.232-1.376.847-1.498 1.724-.032.23-.046 2.729-.037 6.475l.015 6.101.122.301c.162.402.384.698.692.925.3.222.83.401 1.186.401.622 0 .676-.032 4.8-2.875l3.867-2.666.027 1.984c.027 1.91.032 1.995.15 2.288.394.981 1.519 1.497 2.504 1.148.256-.091 1.375-.836 4.747-3.158 2.427-1.672 4.538-3.157 4.692-3.301.805-.752.818-2.052.029-2.813-.327-.316-8.935-6.249-9.339-6.437-.257-.12-.377-.142-.784-.142-.437-.001-.514.015-.836.173-.441.217-.841.638-1.012 1.066-.119.296-.124.376-.151 2.293l-.027 1.987-3.733-2.575a547 547 0 0 0-3.923-2.691c-.235-.145-.748-.282-1.035-.277a2.2 2.2 0 0 0-.456.069m4.88 4.957c2.259 1.554 4.147 2.864 4.195 2.911.082.079-.241.313-4.209 3.046a640 640 0 0 1-4.342 2.977c-.024.01-.044-2.675-.044-5.966v-5.984l.147.095c.081.052 1.995 1.367 4.253 2.921m10.687-.008c2.336 1.61 4.253 2.946 4.261 2.969.011.032-7.675 5.378-8.475 5.894l-.153.099v-5.982c0-4.415.016-5.972.06-5.945.033.021 1.971 1.355 4.307 2.965"/></svg>

<svg width="32" height="32" viewBox="0 0 32 32" fill="none" xmlns="http://www.w3.org/2000/svg"><path d="M5.813 8.073 C 4.971 8.305,4.437 8.920,4.315 9.797 C 4.283 10.027,4.269 12.526,4.278 16.272 L 4.293 22.373 4.415 22.674 C 4.577 23.076,4.799 23.372,5.107 23.599 C 5.407 23.821,5.937 24.000,6.293 24.000 C 6.915 24.000,6.969 23.968,11.093 21.125 L 14.960 18.459 14.987 20.443 C 15.014 22.353,15.019 22.438,15.137 22.731 C 15.531 23.712,16.656 24.228,17.641 23.879 C 17.897 23.788,19.016 23.043,22.388 20.721 C 24.815 19.049,26.926 17.564,27.080 17.420 C 27.885 16.668,27.898 15.368,27.109 14.607 C 26.782 14.291,18.174 8.358,17.770 8.170 C 17.513 8.050,17.393 8.028,16.986 8.028 C 16.549 8.027,16.472 8.043,16.150 8.201 C 15.709 8.418,15.309 8.839,15.138 9.267 C 15.019 9.563,15.014 9.643,14.987 11.560 L 14.960 13.547 11.227 10.972 C 9.173 9.556,7.408 8.345,7.304 8.281 C 7.069 8.136,6.556 7.999,6.269 8.004 C 6.150 8.006,5.945 8.037,5.813 8.073 M10.693 13.030 C 12.952 14.584,14.840 15.894,14.888 15.941 C 14.970 16.020,14.647 16.254,10.679 18.987 C 8.315 20.615,6.361 21.955,6.337 21.964 C 6.313 21.974,6.293 19.289,6.293 15.998 L 6.293 10.014 6.440 10.109 C 6.521 10.161,8.435 11.476,10.693 13.030 M21.380 13.022 C 23.716 14.632,25.633 15.968,25.641 15.991 C 25.652 16.023,17.966 21.369,17.166 21.885 L 17.013 21.984 17.013 16.002 C 17.013 11.587,17.029 10.030,17.073 10.057 C 17.106 10.078,19.044 11.412,21.380 13.022 " fill="#1A1C1F" stroke="none" fill-rule="evenodd"></path></svg>
